src/symbols/alphanum/1F194.svg

<svg id="emoji" viewBox="0 0 72 72" xmlns="http://www.w3.org/2000/svg">
  <g id="grid">
    <path fill="#b3b3b3" d="M68,4V68H4V4H68m4-4H0V72H72V0Z"/>
    <path fill="none" stroke="#00a5ff" stroke-miterlimit="10" stroke-width="0.1" d="M12.923,10.9583H59.0769A1.9231,1.9231,0,0,1,61,12.8814V59.0352a1.9231,1.9231,0,0,1-1.9231,1.9231H12.9231A1.9231,1.9231,0,0,1,11,59.0352V12.8813A1.923,1.923,0,0,1,12.923,10.9583Z"/>
    <rect x="16" y="4" rx="2.2537" width="40" height="64" fill="none" stroke="#00a5ff" stroke-miterlimit="10" stroke-width="0.1"/>
    <rect x="16" y="4" rx="2.2537" width="40" height="64" transform="translate(72) rotate(90)" fill="none" stroke="#00a5ff" stroke-miterlimit="10" stroke-width="0.1"/>
    <circle cx="36" cy="36" r="29" fill="none" stroke="#00a5ff" stroke-miterlimit="10" stroke-width="0.1"/>
  </g>
  <g id="color">
    <path fill="#d0cfce" stroke="none" stroke-miterlimit="10" stroke-width="2" d="M59.0349,60H12.9651 C12.4343,60,12,59.5657,12,59.0349V12.9651C12,12.4343,12.4343,12,12.9651,12h46.0698C59.5657,12,60,12.4343,60,12.9651v46.0698 C60,59.5657,59.5657,60,59.0349,60z"/>
  </g>
  <g id="hair"/>
  <g id="skin"/>
  <g id="skin-shadow"/>
  <g id="line">
    <path fill="none" stroke="#000000" stroke-miterlimit="10" stroke-width="2" d="M59.0349,60H12.9651 C12.4343,60,12,59.5657,12,59.0349V12.9651C12,12.4343,12.4343,12,12.9651,12h46.0698C59.5657,12,60,12.4343,60,12.9651v46.0698 C60,59.5657,59.5657,60,59.0349,60z"/>
    <line x1="31.4661" x2="31.4661" y1="30.875" y2="40.875" fill="none" stroke="#000000" stroke-linecap="round" stroke-linejoin="round" stroke-miterlimit="10" stroke-width="2"/>
    <path fill="none" stroke="#000000" stroke-linecap="round" stroke-linejoin="round" stroke-miterlimit="10" stroke-width="2" d="M40.0646,40.8564h-3.6434v-9.9627h3.6434c1.1485,0,2.0796,0.9311,2.0796,2.0796v5.8035 C42.1442,39.9253,41.2131,40.8564,40.0646,40.8564z"/>
  </g>
</svg>

<svg id="emoji" version="1.1" viewBox="0 0 72 72" xmlns="http://www.w3.org/2000/svg">
 <g id="grid">
  <path d="m68 4v64h-64v-64h64m4-4h-72v72h72z" fill="#b3b3b3"/>
  <path d="m12.92 10.96h46.15a1.923 1.923 0 0 1 1.923 1.923v46.15a1.923 1.923 0 0 1-1.923 1.923h-46.15a1.923 1.923 0 0 1-1.923-1.923v-46.15a1.923 1.923 0 0 1 1.923-1.923z" fill="none" stroke="#00a5ff" stroke-miterlimit="10" stroke-width=".1"/>
  <rect x="16" y="4" width="40" height="64" rx="2.254" fill="none" stroke="#00a5ff" stroke-miterlimit="10" stroke-width=".1"/>
  <rect transform="rotate(90,36,36)" x="16" y="4" width="40" height="64" rx="2.254" fill="none" stroke="#00a5ff" stroke-miterlimit="10" stroke-width=".1"/>
  <circle cx="36" cy="36" r="29" fill="none" stroke="#00a5ff" stroke-miterlimit="10" stroke-width=".1"/>
 </g>
 <g id="color" transform="translate(-.0006922 -.01378)" stroke="#d22f27">
  <rect x="12" y="12.01" width="48" height="47.83" ry="5" fill="#fff" stroke="none" stroke-width="2"/>
 </g>
 <g id="line-supplement" transform="translate(-.0006922 -.01378)" fill="none" stroke="#d22f27">
  <path transform="matrix(0 2.404 2.404 0 35.81 35.73)" d="m-3.5-3.5h7" clip-rule="evenodd" stroke-linecap="round" stroke-linejoin="round" stroke-miterlimit="10" stroke-width="2px"/>
  <path transform="matrix(2.404 0 0 2.404 41.53 27.31)" d="m0 6.974h-2.427v-6.974h2.427c1.148 0 2.08 0.931 2.08 2.079v2.815c0 1.149-0.932 2.08-2.08 2.08z" clip-rule="evenodd" stroke-linecap="round" stroke-linejoin="round" stroke-miterlimit="10" stroke-width="2px"/>
  <rect x="12" y="12.01" width="48" height="47.83" ry="5" stroke-width="2"/>
 </g>
</svg>
